images_sukapura_svg/cmd/sc_insertcellsdown.svg

<svg height="16" viewBox="0 0 4.2333332 4.2333335" width="16" xmlns="http://www.w3.org/2000/svg" xmlns:xlink="http://www.w3.org/1999/xlink"><linearGradient id="a" gradientUnits="userSpaceOnUse" x1="83" x2="83" y1="2" y2="-1"><stop offset="0" stop-color="#0040dd"/><stop offset="1" stop-color="#0a84ff"/></linearGradient><g transform="translate(0 -292.76665)"><g stroke-width=".264583"><path d="m.26458334 293.29581h3.70416656v3.175h-3.70416656z" fill="#fff"/><path d="m.13280843 293.03175c-.07310476-.0001-.13239338.0592-.13229167.13229v.92552h-.00051676v2.51354c-.00010171.0731.05918691.1324.13229167.1323h3.96874993c.073105.0001.1323932-.0592.1322916-.1323v-2.51354h.0005292v-.92552c.0001016-.0731-.059187-.13239-.1322917-.13229zm.13177491.26406h1.05833336.2645833 1.0583332.2645834 1.0583333.00103v.79375h-.0005292v2.38177h-3.70518603v-2.38177h.00051673v-.26458z" fill="#69696e"/><path d="m1.3229167 293.29581v.79375h-1.05833336v.26459h1.05833336v.79375h-1.05833336v.26458h1.05833336v1.05833h.2645833v-1.05833h1.0583332v1.05833h.2645834v-1.05833h1.0583333v-.26458h-1.0583333v-.79375h1.0583333v-.26459h-1.0583333v-.79375h-.2645834v.79375h-1.0583332v-.79375zm.2645833 1.05834h1.0583332v.79375h-1.0583332z" fill="#bababa"/><path d="m2.910417 295.41248h1.058333v1.058341h-1.058333z" fill="#32d74b"/></g><path d="m1.5875 293.03123h1.0583332v.26458h-1.0583332z" fill="#c93400" opacity="0"/><path d="m2.6458335 295.1479v.26458 1.05834.26458h.2645833 1.0583333.2645833v-1.32292-.26458h-.2645833-1.0583333zm.2645833.26458h1.0583333v1.05834h-1.0583333z" fill="#007018" stroke-width=".264583"/><path d="m1.5875 293.29581h1.058333v3.175h-1.058333z" fill="#ff9f0a" opacity="0"/><g transform="matrix(0 .26458333 -.26458333 0 5.419943 292.504627)"><path d="m7.4785156 5c-.5921413.0073332-1.0356616.4620082-1.2636718 1.0019531h-2.7148438c-.8127451 0-1.4980469.6853018-1.4980469 1.4980469s.6853018 1.4980469 1.4980469 1.4980469h2.8359375c.1575646.3419104.2412355.7446123.5898437.8886719.5465478.2258562 1.2235704.0891768 1.6386719-.3320313l.9902344-.9882813c.5577645-.5539602.5575965-1.5673434.0019531-2.1230468l-.9960937-1.0019532a.9981775.9981775 0 0 0 0-.00195c-.2823926-.2827316-.6824798-.4452003-1.0820313-.4394562z" fill="#fff" fill-opacity=".784314"/><path d="m7.4921875 5.9980469a.49962108.49962108 0 0 0 -.4941406.5019531v.5h-3.4980469c-.2769778 0-.5.2230222-.5.5s.2230222.5.5.5h3.4980469v.5a.49962108.49962108 0 0 0 .8554687.3535156l.9980469-.9960937a.49962108.49962108 0 0 0 0-.7089844l-.9980469-1.0039063a.49962108.49962108 0 0 0 -.3613281-.1464843z" fill="url(#a)"/></g></g></svg>

<?xml version="1.0" encoding="UTF-8" standalone="no"?>
<!-- Created with Inkscape (http://www.inkscape.org/) -->

<svg
   xmlns:dc="http://purl.org/dc/elements/1.1/"
   xmlns:cc="http://creativecommons.org/ns#"
   xmlns:rdf="http://www.w3.org/1999/02/22-rdf-syntax-ns#"
   xmlns:svg="http://www.w3.org/2000/svg"
   xmlns="http://www.w3.org/2000/svg"
   xmlns:xlink="http://www.w3.org/1999/xlink"
   xmlns:sodipodi="http://sodipodi.sourceforge.net/DTD/sodipodi-0.dtd"
   xmlns:inkscape="http://www.inkscape.org/namespaces/inkscape"
   width="16"
   height="16"
   viewBox="0 0 4.2333332 4.2333335"
   version="1.1"
   id="svg1609"
   inkscape:version="0.92.3 (unknown)"
   sodipodi:docname="sc_insertcellsdown.svg"
   inkscape:export-filename="/home/rizmut/Dokumen/Rizmut/Github/libreoffice-style-sukapura/images_sukapura/cmd/sc_insertcellsright.png"
   inkscape:export-xdpi="96"
   inkscape:export-ydpi="96">
  <defs
     id="defs1603">
    <linearGradient
       gradientTransform="translate(75,-7)"
       id="a-367"
       gradientUnits="userSpaceOnUse"
       x1="14"
       x2="13.79661"
       y1="22"
       y2="2.1355929">
      <stop
         offset="0"
         stop-color="#0040dd"
         id="stop2206" />
      <stop
         offset="1"
         stop-color="#0a84ff"
         id="stop2208" />
    </linearGradient>
    <linearGradient
       inkscape:collect="always"
       xlink:href="#a-367"
       id="linearGradient2161"
       x1="8"
       y1="9"
       x2="8"
       y2="6"
       gradientUnits="userSpaceOnUse" />
  </defs>
  <sodipodi:namedview
     id="base"
     pagecolor="#ffffff"
     bordercolor="#666666"
     borderopacity="1.0"
     inkscape:pageopacity="0.0"
     inkscape:pageshadow="2"
     inkscape:zoom="11.048544"
     inkscape:cx="2.1049404"
     inkscape:cy="4.017035"
     inkscape:document-units="mm"
     inkscape:current-layer="g854"
     showgrid="true"
     units="px"
     inkscape:window-width="1366"
     inkscape:window-height="706"
     inkscape:window-x="0"
     inkscape:window-y="0"
     inkscape:window-maximized="1"
     showguides="false">
    <inkscape:grid
       type="xygrid"
       id="grid2157"
       spacingx="0.13229167"
       spacingy="0.13229167"
       empspacing="2" />
  </sodipodi:namedview>
  <metadata
     id="metadata1606">
    <rdf:RDF>
      <cc:Work
         rdf:about="">
        <dc:format>image/svg+xml</dc:format>
        <dc:type
           rdf:resource="http://purl.org/dc/dcmitype/StillImage" />
        <dc:title></dc:title>
      </cc:Work>
    </rdf:RDF>
  </metadata>
  <g
     inkscape:label="Layer 1"
     inkscape:groupmode="layer"
     id="layer1"
     transform="translate(0,-292.76665)">
    <g
       id="g854">
      <path
         sodipodi:nodetypes="ccccc"
         style="fill:#ffffff;stroke-width:0.26458332"
         inkscape:connector-curvature="0"
         id="path4"
         d="M 0.26458334,293.29581 H 3.9687499 v 3.175 H 0.26458334 Z" />
      <path
         id="path2"
         d="m 0.13280843,293.03175 c -0.07310476,-10e-5 -0.1323933765,0.0592 -0.13229166538,0.13229 v 0.92552 H 0 v 2.51354 c -1.0171113e-4,0.0731 0.05918691,0.1324 0.13229167,0.1323 H 4.1010416 c 0.073105,10e-5 0.1323932,-0.0592 0.1322916,-0.1323 v -2.51354 h 5.292e-4 v -0.92552 c 1.016e-4,-0.0731 -0.059187,-0.13239 -0.1322917,-0.13229 z m 0.13177491,0.26406 H 1.3229167 1.5875 h 1.0583332 0.2645834 1.0583333 0.00103 v 0.79375 h -5.292e-4 v 2.38177 H 0.26406467 v -2.38177 h 5.1673e-4 v -0.26458 z"
         style="fill:#69696e;fill-opacity:1;stroke-width:0.26458332"
         inkscape:connector-curvature="0" />
      <path
         sodipodi:nodetypes="cccccccccccccccccccccccccccccccccc"
         inkscape:connector-curvature="0"
         style="fill:#bababa;fill-opacity:1;stroke-width:0.26458332"
         id="path8"
         d="m 1.3229167,293.29581 v 0.79375 H 0.26458334 v 0.26459 H 1.3229167 v 0.79375 H 0.26458334 v 0.26458 H 1.3229167 v 1.05833 H 1.5875 v -1.05833 h 1.0583332 v 1.05833 h 0.2645834 v -1.05833 H 3.9687499 V 295.1479 H 2.9104166 v -0.79375 h 1.0583333 v -0.26459 H 2.9104166 v -0.79375 H 2.6458332 v 0.79375 H 1.5875 v -0.79375 z M 1.5875,294.35415 h 1.0583332 v 0.79375 H 1.5875 Z" />
      <rect
         y="295.41248"
         x="2.9104168"
         height="1.058341"
         width="1.0583333"
         id="rect3720"
         style="fill:#32d74b;fill-opacity:1;stroke-width:0.26458332" />
      <path
         id="rect1587"
         d="m 1.5875,293.03123 h 1.0583332 v 0.26458 H 1.5875 Z"
         style="opacity:0;fill:#c93400;fill-opacity:1;stroke:none;stroke-width:0.26458332;stroke-linecap:round;stroke-linejoin:round;stroke-miterlimit:4;stroke-dasharray:none;stroke-opacity:0"
         inkscape:connector-curvature="0" />
      <path
         id="path2175"
         d="m 2.6458335,295.1479 v 0.26458 l 0,1.05834 v 0.26458 h 0.2645833 1.0583333 0.2645833 l 0,-1.32292 V 295.1479 H 3.9687501 2.9104168 Z m 0.2645833,0.26458 h 1.0583333 l 0,1.05834 H 2.9104168 Z"
         style="fill:#007018;fill-opacity:1;stroke-width:0.26458332"
         inkscape:connector-curvature="0"
         sodipodi:nodetypes="ccccccccccccccccc" />
      <rect
         y="293.29581"
         x="1.5875"
         height="3.175"
         width="1.0583333"
         id="rect2180"
         style="opacity:0;fill:#ff9f0a;fill-opacity:1;stroke:none;stroke-width:0.26458332;stroke-linecap:round;stroke-linejoin:round;stroke-miterlimit:4;stroke-dasharray:none;stroke-opacity:0" />
      <g
         id="g2189"
         transform="rotate(90,2.840983,295.34561)">
        <path
           id="path2163"
           d="M 7.4785156,5 C 6.8863743,5.0073332 6.442854,5.4620082 6.2148438,6.0019531 H 3.5 c -0.8127451,0 -1.4980469,0.6853018 -1.4980469,1.4980469 0,0.8127451 0.6853018,1.4980469 1.4980469,1.4980469 H 6.3359375 C 6.4935021,9.3399573 6.577173,9.7426592 6.9257812,9.8867188 7.472329,10.112575 8.1493516,9.9758956 8.5644531,9.5546875 L 9.5546875,8.5664062 C 10.112452,8.012446 10.112284,6.9990628 9.5566406,6.4433594 L 8.5605469,5.4414062 a 0.9981775,0.9981775 0 0 0 0,-0.00195 C 8.2781543,5.1567246 7.8780671,4.9942559 7.4785156,5 Z"
           style="fill:#ffffff;fill-opacity:0.78431373;stroke-width:0.99999994"
           transform="matrix(0.26458333,0,0,0.26458333,0,292.76665)"
           inkscape:connector-curvature="0" />
        <path
           id="rect1516"
           transform="matrix(0.26458333,0,0,0.26458333,0,292.76665)"
           d="M 7.4921875,5.9980469 A 0.49962108,0.49962108 0 0 0 6.9980469,6.5 V 7 H 3.5 C 3.2230222,7 3,7.2230222 3,7.5 3,7.7769778 3.2230222,8 3.5,8 H 6.9980469 V 8.5 A 0.49962108,0.49962108 0 0 0 7.8535156,8.8535156 L 8.8515625,7.8574219 a 0.49962108,0.49962108 0 0 0 0,-0.7089844 L 7.8535156,6.1445312 A 0.49962108,0.49962108 0 0 0 7.4921875,5.9980469 Z"
           style="fill:url(#linearGradient2161);fill-opacity:1;stroke-width:0.99999994"
           inkscape:connector-curvature="0" />
      </g>
    </g>
  </g>
</svg>
